svg/clubs.svg

<svg width="32" height="32" viewBox="0 0 32 32" fill="none" xmlns="http://www.w3.org/2000/svg">
<path fill-rule="evenodd" clip-rule="evenodd" d="M30 16C30 23.364 23.364 30 16 30C8.636 30 2 23.364 2 16C2 8.636 8.636 2 16 2C23.364 2 30 8.636 30 16ZM32 16C32 24.836 24.836 32 16 32C7.164 32 0 24.836 0 16C0 7.164 7.164 0 16 0C24.836 0 32 7.164 32 16Z" fill="black"/>
<path fill-rule="evenodd" clip-rule="evenodd" d="M10.953 5.03399C10.8261 4.99996 10.6938 4.99126 10.5636 5.00837C10.4334 5.02549 10.3078 5.06809 10.194 5.13374C10.0803 5.1994 9.98057 5.28682 9.90061 5.39101C9.82064 5.4952 9.76198 5.61413 9.72798 5.74099L5.03398 25.992C4.99934 26.1191 4.99015 26.2517 5.00693 26.3824C5.0237 26.513 5.06613 26.6391 5.13175 26.7533C5.19738 26.8675 5.28492 26.9676 5.38935 27.0478C5.49378 27.1281 5.61304 27.187 5.74028 27.221C5.86751 27.2551 6.00022 27.2636 6.13079 27.2462C6.26135 27.2289 6.38719 27.1858 6.50108 27.1197C6.61497 27.0535 6.71467 26.9655 6.79446 26.8607C6.87424 26.7559 6.93253 26.6364 6.96599 26.509L11.66 6.25899C11.694 6.13214 11.7027 5.99982 11.6856 5.8696C11.6685 5.73937 11.6259 5.6138 11.5602 5.50004C11.4946 5.38629 11.4072 5.28658 11.303 5.20661C11.1988 5.12665 11.0799 5.06799 10.953 5.03399ZM13.06 14.039C13.485 12.336 13.858 11.003 14.285 9.95999C14.714 8.90199 15.051 8.52999 15.197 8.42799C15.2049 8.42088 15.2122 8.41319 15.219 8.40499L15.236 8.40799C15.367 8.38599 15.369 8.38699 15.589 8.48099L15.654 8.50899C16.238 8.73899 17.146 9.33499 18.48 10.585C20.064 12.047 21.653 12.923 22.84 13.323C23.5057 13.5278 24.1912 13.6619 24.885 13.723C24.573 14.884 24.258 16.02 23.857 17.057C23.452 18.118 23.101 18.831 22.573 19.364C22.188 19.774 21.854 19.906 21.442 19.891C20.923 19.873 19.995 19.602 18.541 18.521C16.795 17.23 15.291 16.448 14.214 16.007C13.7228 15.8099 13.2229 15.6351 12.716 15.483C12.796 15.108 12.909 14.645 13.06 14.039ZM11.954 15.24L11.971 15.248C11.965 15.246 11.9593 15.2433 11.954 15.24ZM11.12 13.555C12.847 6.62499 14.294 3.92099 19.847 9.12499C22.68 11.78 24.78 11.771 25.987 11.766C27.147 11.761 27.481 11.759 26.847 14.125C25.553 18.955 23.794 24.921 17.347 20.125C14.709 18.163 12.955 17.639 11.898 17.324C10.372 16.868 10.299 16.846 11.12 13.555Z" fill="black"/>
</svg>

<svg width="32" height="32" fill="none" xmlns="http://www.w3.org/2000/svg"><path fill-rule="evenodd" clip-rule="evenodd" d="M30 16c0 7.364-6.636 14-14 14S2 23.364 2 16 8.636 2 16 2s14 6.636 14 14zm2 0c0 8.836-7.164 16-16 16S0 24.836 0 16 7.164 0 16 0s16 7.164 16 16z" fill="#000"/><path fill-rule="evenodd" clip-rule="evenodd" d="M10.953 5.034a1 1 0 0 0-1.225.707L5.034 25.992a1 1 0 1 0 1.932.517l4.694-20.25a1 1 0 0 0-.707-1.225zm2.107 9.005c.425-1.703.798-3.036 1.225-4.079.429-1.058.766-1.43.912-1.532a.21.21 0 0 0 .022-.023l.017.003c.131-.022.133-.021.353.073l.065.028c.584.23 1.492.826 2.826 2.076 1.584 1.462 3.173 2.338 4.36 2.738a9.906 9.906 0 0 0 2.045.4c-.312 1.161-.627 2.297-1.028 3.334-.405 1.061-.756 1.774-1.284 2.307-.385.41-.719.542-1.131.527-.519-.018-1.447-.289-2.901-1.37-1.746-1.291-3.25-2.073-4.327-2.514a17.612 17.612 0 0 0-1.498-.524c.08-.375.193-.838.344-1.444zm-1.106 1.201l.017.008a.08.08 0 0 1-.017-.008zm-.834-1.685c1.727-6.93 3.174-9.634 8.727-4.43 2.833 2.655 4.933 2.646 6.14 2.641 1.16-.005 1.494-.007.86 2.359-1.294 4.83-3.053 10.796-9.5 6-2.638-1.962-4.392-2.486-5.449-2.801-1.526-.456-1.599-.478-.778-3.769z" fill="#000"/></svg>
